icons/printer-17.svg

<svg width="16" height="17" viewBox="0 0 16 17" fill="none" xmlns="http://www.w3.org/2000/svg">
<path fill-rule="evenodd" clip-rule="evenodd" d="M4.18188 2.71184C4.18188 2.41059 4.42609 2.16638 4.72734 2.16638H11.2728C11.574 2.16638 11.8182 2.41059 11.8182 2.71184V5.98456H12.3636C12.7976 5.98456 13.2138 6.15696 13.5207 6.46384C13.8276 6.77072 14 7.18693 14 7.62092V10.3482C14 10.7822 13.8276 11.1984 13.5207 11.5053C13.2138 11.8122 12.7976 11.9846 12.3636 11.9846H11.8182V13.6209C11.8182 13.9222 11.574 14.1664 11.2728 14.1664H4.72734C4.42609 14.1664 4.18188 13.9222 4.18188 13.6209V11.9846H3.63636C3.20237 11.9846 2.78616 11.8122 2.47928 11.5053C2.1724 11.1984 2 10.7822 2 10.3482V7.62092C2 7.18693 2.1724 6.77072 2.47928 6.46384C2.78616 6.15696 3.20237 5.98456 3.63636 5.98456H4.18188V2.71184ZM4.18188 10.8936V9.25731C4.18188 8.95606 4.42609 8.71185 4.72734 8.71185H11.2728C11.574 8.71185 11.8182 8.95606 11.8182 9.25731V10.8936H12.3636C12.5083 10.8936 12.647 10.8362 12.7493 10.7339C12.8516 10.6316 12.9091 10.4929 12.9091 10.3482V7.62092C12.9091 7.47626 12.8516 7.33752 12.7493 7.23523C12.647 7.13293 12.5083 7.07547 12.3636 7.07547H11.2753L11.2728 7.07547L11.2703 7.07547H4.72986L4.72734 7.07547L4.72481 7.07547H3.63636C3.4917 7.07547 3.35296 7.13293 3.25067 7.23523C3.14838 7.33752 3.09091 7.47626 3.09091 7.62092V10.3482C3.09091 10.4929 3.14838 10.6316 3.25067 10.7339C3.35296 10.8362 3.4917 10.8936 3.63636 10.8936H4.18188ZM10.7273 11.4305V9.80276H5.27279V13.0755H10.7273V11.4477C10.7273 11.4449 10.7273 11.442 10.7273 11.4391C10.7273 11.4362 10.7273 11.4334 10.7273 11.4305ZM10.7273 3.25729V5.98456H5.27279V3.25729H10.7273Z" fill="#272431"/>
</svg>

<svg xmlns="http://www.w3.org/2000/svg" width="16" height="17" viewBox="0 0 16 17"><path fill-rule="evenodd" d="M4.182 2.712c0-.301.244-.546.545-.546h6.546c.301 0 .545.245.545.546v3.273h.546A1.636 1.636 0 0114 7.62v2.727a1.636 1.636 0 01-1.636 1.637h-.546v1.636a.545.545 0 01-.545.545H4.727a.545.545 0 01-.545-.545v-1.636h-.546A1.636 1.636 0 012 10.348V7.621a1.636 1.636 0 011.636-1.636h.546V2.712zm0 8.182V9.257c0-.3.244-.545.545-.545h6.546c.301 0 .545.244.545.545v1.637h.546a.545.545 0 00.545-.546V7.621a.545.545 0 00-.545-.546H3.636a.545.545 0 00-.545.546v2.727a.545.545 0 00.545.546h.546zm6.545.537V9.803H5.273v3.272h5.454v-1.644zm0-8.174v2.728H5.273V3.257h5.454z"/></svg>
